X:16
T:Miss Rattray of Dalrullzian
C:Robert Petrie
S:Petrie's Collection of Strathspey Reels and Country Dances &c., 1790
Z:Steve Wyrick  4/3/03
N:Petrie's First Collection, page 8
L:1/8
V:1 name = "violin"
V:2 name = "bass" clef=bass middle=d transpose=-24
M:6/8
R:Jig
K:G
[V:1] f|g2G B2d|gab agf|gfe dec|Bdg G2d|
[V:2] z|GBd g2b|e'3 c'3|b2c'f3 |g3  gdB|
[V:1] Tgfg dBG|gab abg|fga AB^c|d2d d2:|
[V:2]  G3  g3 |e3 ^c3 |d3  a2A |dAF D2:|
[V:1] |:d|dBG de=f|Tede c2c|e^cA efg|Tfef d2d  |
[V:2] |:z|g3  b3  | c'3 gec|A3  ^c3 | d3  d'c'b|
[V:1] cde edc|Bcd efg|BcB AGF|G3  G2:|
[V:2] a3  f3 |g3  c3 |d3  D3 |GBd G2:|
[V:1] |:D|[B,3G3][D3A3]|[G3B3][A3c3]|ded cBA|GBd g2D|
[V:2] |:z| GBd    faf  | g3    fad  |b2g a2d|g3  edc|
[V:1] TGFG TAGA|TBAB cde|dBG AFD|G3  G,2:|
[V:2]  B3   d3 | g3  c3 |d3  D3 |GBd g2 :|
[V:1] |:B/c/|dBG dBG|e=fd c2c|e^cA ecA|fge d2d|
[V:2] |:z   |G3  B3 |c3   cdB|A3  ^c3 |d2a gab|
[V:1] ece dBd|cBA BGF|EcB AGF|G3  G2:|
[V:2] c'3 g3 |f3  g2d|c3  d2D|GBd G2:|
% The above code was written using Phil Taylor's BarFly abc reader/converter/player program.
% Other abc converters (e.g. abc2ps) may require everything after the word "bass" to be
% deleted in the V:2 header line for correct display of notes the bass clef, or require that
% the M: and K: fields be repeated directly under the V:1 header line to display the meter
% and key signature on both staffs.  Some abc MIDI players (e.g. abc2midi) will not play
% multiple-voiced abc code.  -SW
